X:1
T:Stand Firm
T:Stand Firm
T:Clarence Board Strouse, 1900
T:George Newell Lovejoy
T:Public Domain Courtesy of the Cyber Hymnal™
T:Public Domain Courtesy of the Cyber Hymnal™
C:Clarence Board Strouse, 1900
Z:Public Domain
Z:Courtesy of the Cyber Hymnal™
%%score ( 1 2 ) ( 3 4 )
L:1/8
Q:1/4=80
M:2/4
K:Bb
V:1 treble 
V:2 treble 
V:3 bass 
V:4 bass 
V:1
 [DF]2 | [DB][DB]/[DB]/ [DB]/[DB]/ ([DB]/[DB]/) | [EA] [EA]2 ([EA]/[EA]/) | [EG][EG] [FA][EG] | %4
w: 1.~Stand|firm when the en- e- my *|charg- es Your *|ranks in all his|
w: 2.~Stand|firm, and not for an in- *|stant Let the *|cow- ard’s thought be|
w: 3.~Stand|firm, an- d s- o shall *|fal- ter The *|en- e- my at|
 [DF]3 ([DF]/[DF]/) | [DB][DB] [DB][FB]/[FB]/ | [FA] [FA]2 ([Fc]/[Fc]/) | %7
w: might, When *|sore, in- deed, is the|dan- ger, Which *|
w: yours, Or *|the heart that’s weak and|trem- bling, Nor *|
w: last, Grow *|weak, and yield th- e|con- quest, And~the *|
 [=Ec][EB]/[EB]/ [EA][EG] | [CF]3 F | F[FA]/[EG]/ [Fc] ([Fe]/[Fe]/) | [Ge] [Fd]2 d/d/ | d/d/B AG | %12
w: lies in the hot, fierce|fight; Cow’r|not in that hour of *|con- flict When the|test comes un- to you;|
w: the heart that not en-|dures; But|steel your breast to the *|con- flict, With cour-|age your soul en- due,|
w: tri- a- l will be|past; And|so sha- ll glo- rious *|vic- t’ry O’e- r|sin come un- to you,|
 [^Fd]3 [Fd] | [Gd] ([GB]/[GB]/) [DA][DG] | [^Fd]3 d |"^rit." dB/B/ AB | (G !fermata!A2) || %17
w: But in|that hour * of hours|To God,|and your- self be true!||
w: And in|that hour * of hours|To God,|and your- self be true!|We *|
w: Since you,|in~that hour * of hours|To God,|and your- self be true!||
"^Refrain" [EF]/[EA]/ | [DB] [DB]2 z | [^FA] [FA]3 | [EG]/[EG]/[EG]/[EG]/ [FA][EG] | %21
w: ||||
w: are sol-|diers, sol-|diers, Sol-|diers of a heav’n- ly king,|
w: ||||
 [DF]3 [EF]/[EA]/ | [DB] [DB]2 z | [FA] [FA]2 [Fc]/[Fc]/ | [=Ec][FB] [EA][EG] | [CF]3 F | %26
w: |||||
w: We are sol-|diers, sol-|diers, And we’ll make|His prais- es ring,|We’ll make|
w: |||||
 F[FA] [Fc][Fe] | [Fe]2 z [EA] | [Ec]4 | [DB]2 |] %30
w: ||||
w: His prais- es ring|for- ev-|er.||
w: ||||
V:2
 x2 | x4 | x4 | x4 | x4 | x4 | x4 | x4 | x3 F | F x3 | x3 d/d/ | (d/d/)B AG | x4 | x4 | x3 d | %15
 dB/B/ AB | G A2 || x | x4 | x4 | x4 | x4 | x4 | x4 | x4 | x3 F | F x3 | x4 | x4 | x2 |] %30
V:3
 [B,,B,]2 | [B,,F,][B,,F,]/[B,,F,]/ [B,,F,]/[B,,F,]/ ([B,,F,]/[B,,F,]/) | [C,F,] [C,F,]2 F,/F,/ | %3
 [F,C][F,C] [F,C][F,A,] | [B,,B,]3 ([B,,B,]/[B,,B,]/) | [B,,B,][B,,B,] [B,,B,][D,B,]/[D,B,]/ | %6
 [C,C] [C,C]2 ([C,A,]/[C,A,]/) | [C,G,][C,D]/[C,D]/ [C,C][C,B,] | [F,A,]3 [F,A,] | %9
 [F,A,][F,C]/[F,C]/ [F,A,] ([F,A,]/[F,A,]/) | [B,,B,] [B,,B,]2 D/D/ | D/D/B, A,G, | [D,A,]3 [D,C] | %13
 [G,B,] ([G,D]/[G,D]/) [G,C][G,B,] | [D,A,]3 D | DB,/B,/ A,B, | (G, !fermata![F,C]2) || %17
 [F,A,]/[F,A,]/ | [B,,F,] [B,,F,]2 z | [D,C] [D,C]3 | [E,B,]/[E,B,]/[E,B,]/[E,B,]/ [E,B,][E,B,] | %21
 [B,,B,]3 [F,A,]/[F,A,]/ | [B,,F,] [B,,F,]2 z | [C,C] [C,C]2 [C,A,]/[C,A,]/ | %24
 [C,G,][C,D] [C,C][C,B,] | [F,A,]3 [F,A,] | [F,A,][F,C] [F,A,][F,A,] | [F,A,]2 z F, | [B,,F,]4 | %29
 [B,,F,]2 |] %30
V:4
 x2 | x4 | x3 (F,/F,/) | x4 | x4 | x4 | x4 | x4 | x4 | x4 | x3 D/D/ | (D/D/)B, A,G, | x4 | x4 | %14
 x3 D | DB,/B,/ A,B, | G, x2 || x | x4 | x4 | x4 | x4 | x4 | x4 | x4 | x4 | x4 | x3 F, | x4 | x2 |] %30

